!!!COM:	Rachmaninoff, Sergei
!!!CDT:	1873/04/01–1943/03/28
!!!OTL@RU:	Voskres iz groba
!!!OTL@EN:	Thou Didst Rise from the Tomb
!!!OPS:	Op. 37
!!!ONM:	No. 14
**kern	**kern	**kern	**kern	**kern	**kern	**kern
*part7	*part6	*part5	*part4	*part3	*part2	*part1
*staff7	*staff6	*staff5	*staff4	*staff3	*staff2	*staff1
*I"Bass 2	*I"Bass 1	*I"Tenor 2	*I"Tenor 1	*I"Alto 2	*I"Alto 1	*I"Soprano
*I'B 2	*I'B 1	*I'T 2	*I'T 1	*I'A 2	*I'A 1	*I'S
*clefF4	*clefF4	*clefGv2	*clefGv2	*clefG2	*clefG2	*clefG2
*k[]	*k[]	*k[]	*k[]	*k[]	*k[]	*k[]
*M4/4	*M4/4	*M4/4	*M4/4	*M4/4	*M4/4	*M4/4
=1	=1	=1	=1	=1	=1	=1
1D	1D	4A	4A	1f	1f	2.a
.	.	4B	4B	.	.	.
.	.	4c	4c	.	.	.
.	.	8dL	8dL	.	.	8bL
.	.	8eJ	8eJ	.	.	8ccJ
=2	=2	=2	=2	=2	=2	=2
2.GG	2.D	4.f	4.f	2.B	2.B	2.dd
.	.	8g	8g	.	.	.
.	.	8fL	8fL	.	.	.
.	.	8eJ	8eJ	.	.	.
4GG	8FL	8dL	8dL	4c	4c	4cc
.	8EJ	8eJ	8eJ	.	.	.
=3	=3	=3	=3	=3	=3	=3
2.GG	2.D	4.f	4.f	2B	2B	2dd
.	.	8g	8g	.	.	.
.	.	8fL	8fL	4B	4B	4dd
.	.	8eJ	8eJ	.	.	.
4GG	8FL	8dL	8dL	4c	4c	4cc
.	8EJ	8eJ	8eJ	.	.	.
=4	=4	=4	=4	=4	=4	=4
2GG	4.D	4.f	4.f	2B	2B	4dd
.	.	.	.	.	.	4dd
.	8E	8g	8g	.	.	.
2GG	2F	8aL	8aL	4.B	4.B	4ee
.	.	8gJ	8gJ	.	.	.
.	.	4a	4a	.	.	4ff
.	.	.	.	8c	8c	.
=5	=5	=5	=5	=5	=5	=5
!!pagebreak:original
2.GG	8EL	2.b-X	2.b-X	4d	4d	2gg
.	8FJ	.	.	.	.	.
.	8GL	.	.	8eL	8eL	.
.	8AJ	.	.	8fJ	8fJ	.
.	8B-XL	.	.	8gL	8gL	8ffL
.	8cJ	.	.	8aJ	8aJ	8ee
4G	4d	4B-X	8fL	4b-X	4b-X	8dd
.	.	.	8gJ	.	.	8eeJ
=6	=6	=6	=6	=6	=6	=6
4.D	4.D	1A	4a	[2.a	[2.a	4ff
.	.	.	4g	.	.	2ee
8r	8E	.	.	.	.	.
2r	8FL	.	8fL	.	.	.
.	8GJ	.	8e	.	.	.
.	8FL	.	8d	8aL]	8aL]	8ddL
.	8EJ	.	8cJ	8gJ	8gJ	8ccJ
=7	=7	=7	=7	=7	=7	=7
2GG	8DL	4c	4c	2f	2f	2dd
.	8EJ	.	.	.	.	.
.	4F	4B	4B	.	.	.
2CC 2GG	2E	2c	2c	2e	2e	2cc
=8	=8	=8	=8	=8	=8	=8
4D	4D	4c	4c	4f	4f	4a
4D	4D	8dL	8dL	4f	4f	8bL
.	.	8eJ	8eJ	.	.	8ccJ
2BB	2G	4.f	4.f	2f	2f	2dd
.	.	8g	8g	.	.	.
=9	=9	=9	=9	=9	=9	=9
!!pagebreak:original
8CL	8CL	2e	2e	4e	4e	4cc
8DJ	8DJ	.	.	.	.	.
4E	4E	.	.	4d	4d	4b
2AA	2AA	4E	4E	4c	4c	2a
.	.	8FL	8FL	8dL	8dL	.
.	.	8GJ	8GJ	8eJ	8eJ	.
=10	=10	=10	=10	=10	=10	=10
4D	4D	12AL	12AL	12fL	12fL	4ff
.	.	12B-X	12B-X	12g	12g	.
.	.	12cJ	12cJ	12aJ	12aJ	.
2G	2G	4d	4d	2b-X	2b-X	8ffL
.	.	.	.	.	.	8eeJ
.	.	4c#X	4c#X	.	.	8ffL
.	.	.	.	.	.	8gg
4G	4G	8dL	8dL	8b-L	8b-L	8ff
.	.	8eJ	8eJ	8ccJ	8ccJ	8eeJ
=11	=11	=11	=11	=11	=11	=11
4G	4G	8dL	8dL	8b-XL	8b-XL	8ddL
.	.	8cJ	8cJ	8aJ	8aJ	8eeJ
2G	2G	[4B-X	[4B-X	8gL	8gL	4ff
.	.	.	.	8aJ	8aJ	.
.	.	8B-L]	8B-L]	4b-	4b-	4ee
.	.	8cJ	8cJ	.	.	.
[4F	[4F	4A	4d	4a	4a	8ddL
.	.	.	.	.	.	8ccJ
=12	=12	=12	=12	=12	=12	=12
4F]	4F]	4A	8dL	8aL	8aL	4ee
.	.	.	8eJ	8ccJ	8ccJ	.
4G	4G	4B	4f	4b	4b	4dd
4AA	4AA	2c	2e	2a	2a	2cc
8BB	8BB	.	.	.	.	.
8C	8C	.	.	.	.	.
=13	=13	=13	=13	=13	=13	=13
!!pagebreak:original
*M2/4	*M2/4	*M2/4	*M2/4	*M2/4	*M2/4	*M2/4
2D	2D	4F	4F	4f	4f	4cc
.	.	8G	8G	4f	4f	8cc
.	.	8A	8A	.	.	8cc
=14	=14	=14	=14	=14	=14	=14
*M4/4	*M4/4	*M4/4	*M4/4	*M4/4	*M4/4	*M4/4
4C	4C	4.A	4.A	4e	4e	8ccL
.	.	.	.	.	.	8ddJ
2D	2D	.	.	4f	4f	8ccL
.	.	8B	8B	.	.	8bJ
.	.	4.c	4.c	4f	4f	8aL
.	.	.	.	.	.	8bJ
8EL	8EL	.	.	4g	4g	4cc
8FJ	8FJ	8d	8d	.	.	.
=15	=15	=15	=15	=15	=15	=15
4G	4G	4e	4e	4d	4d	4b-X
8FL	8FL	4A	4A	4c#X	4c#X	8aL
8EJ	8EJ	.	.	.	.	8gJ
[2D	[2D	2A	2A	4d	4d	2f
.	.	.	.	8eL	8eL	.
.	.	.	.	8fJ	8fJ	.
=16	=16	=16	=16	=16	=16	=16
!!pagebreak:original
*M6/4	*M6/4	*M6/4	*M6/4	*M6/4	*M6/4	*M6/4
4D]	4D]	4.B-X	4.B-X	2g	2g	4dd
8GL	8GL	.	.	.	.	8eeL
8AJ	8AJ	8d	8d	.	.	8ffJ
2B-X	2B-X	4c#X	4c#X	8gL	8gL	4.gg
.	.	.	.	8aJ	8aJ	.
.	.	8dL	8dL	4b-X	4b-X	.
.	.	8c#J	8eJ	.	.	8ff
4A	4A	4d	4f	4a	4a	4ff
4D	4c	4D	8fL	4cc	4cc	8ffL
.	.	.	8eJ	.	.	8eeJ
=17	=17	=17	=17	=17	=17	=17
*M4/4	*M4/4	*M4/4	*M4/4	*M4/4	*M4/4	*M4/4
1GG	4B	1D	8fL	4b	4b	8ffL
.	.	.	8gJ	.	.	8ggJ
.	4A	.	8fL	4a	4a	8ffL
.	.	.	8eJ	.	.	8eeJ
.	4B	.	8dL	4b	4b	8ddL
.	.	.	8eJ	.	.	8eeJ
.	8cL	.	[4f	8ccL	8ccL	[4ff
.	8AJ	.	.	8aJ	8aJ	.
=18	=18	=18	=18	=18	=18	=18
4GG	8BL	4D	4f]	8bL	8bL	4ff]
.	8AJ	.	.	8aJ	8aJ	.
4GG#X	2B	2E	4e	2b	2b	4ee
4AA	.	.	8dL	.	.	8ddL
.	.	.	8cJ	.	.	8ccJ
[4FF	8AL	[4A	[4d	8aL	8aL	[4dd
.	8GJ	.	.	8gJ	8gJ	.
=19	=19	=19	=19	=19	=19	=19
4FF]	8FL	4A]	2d]	8fL	8fL	2dd]
.	8EJ	.	.	8eJ	8eJ	.
4GG	4F	4B	.	4f	4f	.
2C	2G	2c	2c	2e	2e	2cc
=20	=20	=20	=20	=20	=20	=20
!!pagebreak:original
2.D	2.D	2.A	1f	4A	4A	2a
.	.	.	.	8BL	8BL	.
.	.	.	.	8cJ	8cJ	.
.	.	.	.	4.d	4.d	4b
4G	4G	4f	.	.	.	4cc
.	.	.	.	8e	8e	.
=21	=21	=21	=21	=21	=21	=21
2.C	2.C	2.A	2.d	4.f	4.f	2.dd
.	.	.	.	8g	8g	.
.	.	.	.	8fL	8fL	.
.	.	.	.	8eJ	8eJ	.
4G	4G	4f	4f	8dL	8dL	4cc
.	.	.	.	8eJ	8eJ	.
=22	=22	=22	=22	=22	=22	=22
2.C	2.C	2.A	2.d	4.f	4.f	2dd
.	.	.	.	8g	8g	.
.	.	.	.	8fL	8fL	4dd
.	.	.	.	8eJ	8eJ	.
4G	4G	4f	4f	8dL	8dL	8ccL
.	.	.	.	8fJ	8fJ	8bJ
=23	=23	=23	=23	=23	=23	=23
8CL	8CL	4e	4e	4e	4e	4cc
8DJ	8DJ	.	.	.	.	.
4E	4E	4d	4d	4e	4e	4b
4AA	4AA	2c	2c	4e	4e	2a
4D	4D	.	.	4f	4f	.
=24	=24	=24	=24	=24	=24	=24
!!pagebreak:original
1GG	4E	8cL	8cL	2c	2e	2g
.	.	8dJ	8dJ	.	.	.
.	4B	4e	4e	.	.	.
.	4A	4e	4e	4c	4e	4g
.	8GL	8e	8e	4c	8eL	4a
.	8FJ	8f	8f	.	8fJ	.
=25	=25	=25	=25	=25	=25	=25
1GG	2E	2g	2g	2c	2g	4b
.	.	.	.	.	.	8ccL
.	.	.	.	.	.	8bJ
.	4F	4f	4f	4c	4f	8aL
.	.	.	.	.	.	8bJ
.	8GL	4e	4e	4c	4e	[4cc
.	8AJ	.	.	.	.	.
=26	=26	=26	=26	=26	=26	=26
2GG	8FL	8d	8d	4c	8dL	4cc]
.	8EJ	8e	8e	.	8eJ	.
.	4D	4f	4f	4B	4f	4b
[2C	[2C	[2G	[2e	4c	4e	2cc
.	.	.	.	4g	4g	.
=27	=27	=27	=27	=27	=27	=27
1C_	1C_	1G]	4e]	2cc	2cc	8eeL
.	.	.	.	.	.	8dd
.	.	.	4c	.	.	8ee
.	.	.	.	.	.	8ffJ
.	.	.	4d	4b	4b	2gg
.	.	.	4e	8aL	8aL	.
.	.	.	.	8gJ	8gJ	.
=28	=28	=28	=28	=28	=28	=28
!!pagebreak:original
1C_	1C_	2A	4f	4.f	2a	8ffL
.	.	.	.	.	.	8ee
.	.	.	4A	.	.	8dd
.	.	.	.	8g	.	8eeJ
.	.	4B	4B	8fL	2a	4.ff
.	.	.	.	8e	.	.
.	.	4c	4c	8d	.	.
.	.	.	.	8eJ	.	8ee
=29	=29	=29	=29	=29	=29	=29
*M6/4	*M6/4	*M6/4	*M6/4	*M6/4	*M6/4	*M6/4
1C_	1C_	4d	4d	2f	4a	4dd
.	.	8eL	8eL	.	4g#X	8ccL
.	.	8dJ	8dJ	.	.	8ddJ
.	.	8cL	8cL	4e	4a	4ee
.	.	8dJ	8dJ	.	.	.
.	.	8cL	8cL	4f	4a	4dd
.	.	8BJ	8BJ	.	.	.
4C]	4C]	4A	4A	4e	4a	2cc
4E	4E	4G	4G	4c	4gn	.
=30	=30	=30	=30	=30	=30	=30
1.D	[1.D	4.A	4.A	[1d	4.f	[1.dd
.	.	8B	8B	.	8g	.
.	.	8AL	8AL	.	8fL	.
.	.	8G	8G	.	8e	.
.	.	8F	8F	.	8d	.
.	.	8GJ	8GJ	.	8eJ	.
.	.	8AL	8AL	4d]	4f	.
.	.	8BJ	8BJ	.	.	.
.	.	4c	4c	8eL	4e	.
.	.	.	.	8cJ	.	.
=31	=31	=31	=31	=31	=31	=31
1.GG;	1.D;]	1.G; 1.B	1.d;	1.B;	1.d;	1.dd;]
==	==	==	==	==	==	==
*-	*-	*-	*-	*-	*-	*-
!!!system-decoration: [(s1[(s2,s3)][(s4,s5)][(s6,s7)])]
